src/assets/showcase/images/home/fox.svg

<svg height="40" viewBox="0 0 92 40" width="92" xmlns="http://www.w3.org/2000/svg"><g fill="#fff" transform=""><path d="m91.9547541 39.8936709c-4.1827322 0-8.4408743 0-12.5733333 0-.1156285 0-.326776-.5113924-.3871039-.6177215-1.7293989-3.1443038-3.4587978-6.3037975-5.178142-9.443038-1.84 3.3417721-3.6297268 6.7392405-5.4646995 10.0860759-4.117377.0101266-8.1995628-.0202531-12.2817486-.0101265.4625136-.8708861.9551912-1.721519 1.4478688-2.5772152 3.4336612-5.9746836 6.8170492-12.0303798 10.2557377-18.0101266-3.6548634-6.4303798-7.3650273-12.81012659-11.04-19.22531647-.0100546 0-.0351912-.04050633-.0100546-.03544304h12.6336612c1.5534426 2.84556962 3.0666667 5.72658228 4.5949727 8.59240507 1.5886338-2.84050633 3.1219672-5.73670886 4.6955191-8.59240507h12.2113661c.0100547.05063292-.0251366.10632912-.0502732.14683545-3.5643716 6.30886076-7.2142077 12.63797466-10.7735519 18.95696206 3.9565027 6.9164557 7.9884153 13.8278481 11.9197814 20.7291139z"/><path d="m61.4288525 15.5189873c.3217486 1.3164557.5077595 2.764557.5077595 4.2886076 0 4.7544304-1.3674317 8.278481-3.2677595 11.1443038-.3217487.486076-.6485246.9518988-1.0004372 1.3974684-1.0306011 1.3164557-2.277377 2.5164557-3.6699454 3.513924-.9350819.6683545-1.9103825 1.2759494-2.9912568 1.7873418-2.151694 1.0177215-4.7508197 1.8126582-7.7471038 1.8126582-4.6854645 0-8.1442623-1.4379746-10.9444809-3.4126582-2.8002186-1.9797468-4.9820765-4.5974683-6.4651366-7.8987342-.9954098-2.2126582-1.6489617-4.7645569-1.7243716-7.8734177-.0351912-1.5392405.155847-3.0582278.4323497-4.3746835.7038252-3.321519 2.0863388-5.92405066 3.835847-8.16708864 1.7495082-2.23797468 3.9665574-3.98987342 6.6461203-5.3113924 1.0507103-.5164557 2.2271038-.95696203 3.509071-1.27594937s2.6996721-.53670886 4.2330055-.53670886h.0251366c1.498142-.07088608 3.0867759.1721519 4.3335519.45063291 1.2970492.28860759 2.4985792.72911392 3.5693989 1.21518987 3.3180328 1.50886076 5.7914754 3.76708861 7.7822951 6.58734177 1.3121311 1.84810132 2.2974863 4.06582282 2.9359563 6.65316452zm-15.0819673 13.1949368c.1206558-.486076.0854645-1.1088608.0854645-1.7518988 0-4.9063291 0-9.7113924 0-14.6329114 0-.6278481-.0703825-1.113924-.2513661-1.5696202-.1659016-.4151899-.4222951-.79493674-.7239344-1.1037975-.5881967-.60253164-1.4730055-1.14430379-2.5840437-1.05822785-.5379235.04050633-.9853552.21265823-1.3774864.4607595-.7289617.46582278-1.2819672 1.17974685-1.5081967 2.12658225-.1156284.4810127-.1106011 1.0936709-.1106011 1.7265823v14.6329114c0 .313924-.015082.6177215.0251366.8860759.1055738.7696203.4474317 1.3873418.8948634 1.8481013.5781421.5924051 1.4730055 1.0886076 2.6292896.9620253 1.4931148-.1620253 2.5890711-1.1594936 2.9208743-2.5265822z"/><path d="m24.6389071 10.9265823c-4.4542076 0-8.903388 0-13.3575956 0-.0553006 1.6708861-.0100547 3.5189873-.0251366 5.2 3.6096174.0303797 7.2745355.0050633 10.9092896.0101266v10.9012658c-3.6598907.0101266-7.3499454-.0151899-10.9897268.0101266.0050273 4.3240506.0251366 8.5670886.0251366 12.8911392 0 .0151899-.0050273.0202532-.0100546.0253165-3.71016396 0-7.42535522 0-11.13551915 0-.02010929.0050633-.02010929-.0101266-.03519126-.0101266-.02513661-13.2759494-.02513661-26.6379747-.00502732-39.91898736 0-.01518988 0-.03544304.01005464-.03544304h23.85464479c.015082 0 .0201093 0 .0251366.01012658.2513662 3.63544304.4926776 7.27594937.7339891 10.91645572z"/></g></svg>

<?xml version="1.0" encoding="UTF-8"?>
<svg width="92px" height="40px" viewBox="0 0 92 40" version="1.1" xmlns="http://www.w3.org/2000/svg" xmlns:xlink="http://www.w3.org/1999/xlink">
    <!-- Generator: Sketch 44.1 (41455) - http://www.bohemiancoding.com/sketch -->
    <title>fox@3x</title>
    <desc>Created with Sketch.</desc>
    <defs></defs>
    <g id="Page-1" stroke="none" stroke-width="1" fill="none" fill-rule="evenodd">
        <g id="PrimeNG-Showcase-HD---Landing" transform="translate(-259.000000, -1224.000000)" fill-rule="nonzero" fill="#FFFFFF">
            <g id="brands" transform="translate(0.000000, 1195.000000)">
                <g transform="translate(259.000000, 28.000000)" id="fox">
                    <g transform="translate(0.000000, 1.000000)">
                        <path d="M91.9547541,39.8936709 C87.7720219,39.8936709 83.5138798,39.8936709 79.3814208,39.8936709 C79.2657923,39.8936709 79.0546448,39.3822785 78.9943169,39.2759494 C77.264918,36.1316456 75.5355191,32.9721519 73.8161749,29.8329114 C71.9761749,33.1746835 70.1864481,36.5721519 68.3514754,39.9189873 C64.2340984,39.9291139 60.1519126,39.8987342 56.0697268,39.9088608 C56.5322404,39.0379747 57.024918,38.1873418 57.5175956,37.3316456 C60.9512568,31.356962 64.3346448,25.3012658 67.7733333,19.321519 C64.1184699,12.8911392 60.408306,6.51139241 56.7333333,0.0962025316 C56.7232787,0.0962025316 56.6981421,0.0556962025 56.7232787,0.0607594937 C60.9361749,0.0607594937 65.1440437,0.0607594937 69.3569399,0.0607594937 C70.9103825,2.90632911 72.4236066,5.78734177 73.9519126,8.65316456 C75.5405464,5.81265823 77.0738798,2.9164557 78.6474317,0.0607594937 C82.7195628,0.0607594937 86.7866667,0.0607594937 90.8587978,0.0607594937 C90.8688525,0.111392405 90.8336612,0.167088608 90.8085246,0.207594937 C87.244153,6.5164557 83.5943169,12.8455696 80.0349727,19.164557 C83.9914754,26.0810127 88.023388,32.9924051 91.9547541,39.8936709 Z" id="path1371_1_"></path>
                        <path d="M61.4288525,15.5189873 C61.7506011,16.835443 61.936612,18.2835443 61.936612,19.8075949 C61.936612,24.5620253 60.5691803,28.0860759 58.6688525,30.9518987 C58.3471038,31.4379747 58.0203279,31.9037975 57.6684153,32.3493671 C56.6378142,33.6658228 55.3910383,34.8658228 53.9984699,35.8632911 C53.063388,36.5316456 52.0880874,37.1392405 51.0072131,37.6506329 C48.8555191,38.6683544 46.2563934,39.4632911 43.2601093,39.4632911 C38.5746448,39.4632911 35.115847,38.0253165 32.3156284,36.0506329 C29.5154098,34.0708861 27.3335519,31.4531646 25.8504918,28.1518987 C24.855082,25.9392405 24.2015301,23.3873418 24.1261202,20.278481 C24.090929,18.7392405 24.2819672,17.2202532 24.5584699,15.9037975 C25.2622951,12.5822785 26.6448087,9.97974684 28.3943169,7.73670886 C30.1438251,5.49873418 32.3608743,3.74683544 35.0404372,2.42531646 C36.0911475,1.90886076 37.267541,1.46835443 38.5495082,1.14936709 C39.8314754,0.830379747 41.2491803,0.612658228 42.7825137,0.612658228 C42.7925683,0.612658228 42.7975956,0.612658228 42.8076503,0.612658228 C44.3057923,0.541772152 45.8944262,0.784810127 47.1412022,1.06329114 C48.4382514,1.35189873 49.6397814,1.79240506 50.7106011,2.27848101 C54.0286339,3.78734177 56.5020765,6.04556962 58.4928962,8.86582278 C59.8050273,10.7139241 60.7903825,12.9316456 61.4288525,15.5189873 Z M46.3468852,28.7139241 C46.467541,28.2278481 46.4323497,27.6050633 46.4323497,26.9620253 C46.4323497,22.0556962 46.4323497,17.2506329 46.4323497,12.3291139 C46.4323497,11.7012658 46.3619672,11.2151899 46.1809836,10.7594937 C46.015082,10.3443038 45.7586885,9.96455696 45.4570492,9.6556962 C44.8688525,9.05316456 43.9840437,8.51139241 42.8730055,8.59746835 C42.335082,8.63797468 41.8876503,8.81012658 41.4955191,9.05822785 C40.7665574,9.52405063 40.2135519,10.2379747 39.9873224,11.1848101 C39.871694,11.6658228 39.8767213,12.278481 39.8767213,12.9113924 C39.8767213,17.7518987 39.8767213,22.6582278 39.8767213,27.5443038 C39.8767213,27.8582278 39.8616393,28.1620253 39.9018579,28.4303797 C40.0074317,29.2 40.3492896,29.8177215 40.7967213,30.278481 C41.3748634,30.8708861 42.2697268,31.3670886 43.4260109,31.2405063 C44.9191257,31.078481 46.015082,30.0810127 46.3468852,28.7139241 Z" id="path1373_1_"></path>
                        <path d="M24.6389071,10.9265823 C20.1846995,10.9265823 15.7355191,10.9265823 11.2813115,10.9265823 C11.2260109,12.5974684 11.2712568,14.4455696 11.2561749,16.1265823 C14.8657923,16.156962 18.5307104,16.1316456 22.1654645,16.1367089 C22.1654645,19.7721519 22.1654645,23.4025316 22.1654645,27.0379747 C18.5055738,27.0481013 14.8155191,27.0227848 11.1757377,27.0481013 C11.180765,31.3721519 11.2008743,35.6151899 11.2008743,39.9392405 C11.2008743,39.9544304 11.195847,39.9594937 11.1908197,39.964557 C7.48065574,39.964557 3.76546448,39.964557 0.0553005464,39.964557 C0.0351912568,39.9696203 0.0351912568,39.9544304 0.0201092896,39.9544304 C-0.0050273224,26.678481 -0.0050273224,13.3164557 0.0150819672,0.035443038 C0.0150819672,0.0202531646 0.0150819672,0 0.025136612,0 C7.97836066,0 15.9315847,0 23.8797814,0 C23.8948634,0 23.8998907,0 23.904918,0.0101265823 C24.1562842,3.64556962 24.3975956,7.28607595 24.6389071,10.9265823 Z" id="path1377_1_"></path>
                    </g>
                </g>
            </g>
        </g>
    </g>
</svg>
